X:1
T:All This Night Bright Angels Sing
T:Arthur Seymour Sullivan (1842-1900)
T:All This Night Bright Angels Sing
T:Public Domain
T:Public Domain
T:Public Domain
C:Arthur Seymour Sullivan (1842-1900)
Z:Public Domain
%%score ( 1 2 ) ( 3 4 )
L:1/8
M:4/4
K:F
V:1 treble 
V:2 treble 
V:3 bass 
V:4 bass 
V:1
 x8 || F2 [FG]2 [FA]2 [GB]2 | [Ac]3 [Bd] [Ac]4 | F2 [FG]2 [FA]2 [FB]2 | [Ec]3 [Ed] [Fc]4 | %5
w: |1.~All this night bright|gels sing, Ne-|ver was such car-|ing, Hark! a|
w: |2.~Wake, O earth, wake|’ry thing, Wake|and hear the joy|bring: Wake and|
 [Ac]3 [Ac] [Ac]2 [FB]2 | [^FA]3 [FA] [FA]4 | G2 [FG]2 (EG) [ce]2 | [cg]4 [A=B]4 | [Gc]8 | %10
w: voice which loud- ly|cries, “Mor- tals,|mor- tals, wake * and|to glad-|ness|
w: joy; for all this|night, Heav’n and|ev- ’ry twink- * ling|a- maz-|ing,|
 [EG]2 F2 [EB]4 | [EG]4 [EG]2 F2 | [EB]4 [EG]4 | F2 [FG]2 [FA]2 [GB]2 | [Ac]3 [Ad] [Ac]4 | %15
w: turns your sad-|From the earth|ris’n a|Son, Shines all night|day be done.”|
w: still stand gaz-|An- gels, pow’rs|all that|be, Wake, and joy|Son to see.|
 [FB]2 [^FA]2 G2 [D=F]2 | (F4 G2) [CE]2 | [CF]8 || F2 [FG]2 [FA]2 [FB]2 | G2 (z d) [Ac]4 | %20
w: 3.~Hail! O Son, O|èd * Light,|in-|to this world by|Let * Thy|
w: |||||
 F2 [FG]2 [FA]2 [FB]2 | G2 (z d) [Ac]4 | [Ae]2 [^Gd]2 [Ac]2 [Ec]2 | [E=B]3 [EA] [D^G]4 | %24
w: * heav’n- ly pow’rs,|in * these|* of ours. For|most du- ly,|
w: ||||
 [CA]2 [DA]2 [G,G]2 [CE]2 | [CG]4 [=B,G]4 | [CG]8 | [EG]2 F2 [EB]4 | [EG]4 [EG]2 F2 | [EB]4 [EG]4 | %30
w: Thou art tru- ly|God and|Man,|we do con-|Hail, O Sun|Right- eous-|
w: ||||||
 F2 [FG]2 [FA]2 [GB]2 | [Ac]3 [Ad] [Ac]4 | [Bd]2 [Gg]2 [Cf]2 F2 | [FA]4 [EG]4 | F8 |] %35
w: ness! * * *|||||
w: |||||
V:2
 x8 || F2 x6 | x8 | F2 x6 | x8 | x8 | x8 | G2 c2 x4 | x8 | x8 | x2 F2 x4 | x6 F2 | x8 | F2 x6 | %14
w: |an-||ol-||||rise.” Lo!|||ness:|is||tho’|
w: |ev-||I||||light, All|||ing,|and||this|
 x8 | x4 G2 x2 | C6 x2 | x8 || F2 x6 | c3 B2 x3 | F2 x6 | c3 B2 x3 | x8 | x8 | x8 | x8 | x8 | %27
w: |bless-|Sent||night;|rays and|Shine|dark souls||||||
w: |||||||||||||
 x2 F2 x4 | x6 F2 | x8 | F2 x6 | x8 | x6 F2 | x8 | F8 |] %35
w: fess:|of|||||||
w: ||||||||
V:3
 x8 || [F,A,]2 [F,B,]2 [F,C]2 [F,C]2 | [F,C]3 [F,C] [F,C]4 | [F,A,]2 [F,B,]2 [F,C]2 [D,F,]2 | %4
 [C,G,]3 [C,G,] [F,A,]4 | [F,_E]3 [F,E] [F,E]2 [B,D]2 | [D,C]3 [D,C] [D,C]4 | %7
 [G,=B,]2 [G,B,]2 [G,C]2 [G,C]2 | (D2 E2) [G,F]4 | [C,E]8 | [B,C]2 [A,C]2 [G,C]4 | %11
 [C,C]4 [B,C]2 [A,C]2 | [G,C]4 [C,C]4 | [F,A,]2 [F,B,]2 [F,C]2 [F,D]2 | [F,_E]3 [F,E] [F,E]4 | %15
 [B,,D]2 [D,C]2 [G,,B,]2 (A,,B,,) | (G,2 A,2) [C,B,]4 | [F,A,]8 || [F,A,]2 [F,B,]2 [F,C]2 [F,D]2 | %19
 E2 z F, [F,F]4 | [F,A,]2 [F,B,]2 [F,C]2 [F,D]2 | E2 z F, [F,F]4 | [E,C]2 [E,=B,]2 [E,A,]2 [E,E]2 | %23
 [E,D]3 [E,C] [E,=B,]4 | [F,A,]2 [F,=B,]2 [E,C]2 (G,E,) | (D,2 E,2) [G,,F,]4 | [C,E,]8 | %27
 [B,_C]2 [A,C]2 [G,C]4 | [C,C]4 [B,C]2 [A,C]2 | [G,C]4 [C,C]4 | [F,A,]2 [F,B,]2 [F,C]2 [F,D]2 | %31
 [F,_E]3 [F,E] [F,E]4 | [B,D]2 [B,E]2 [A,F]2 [B,D]2 | C4 [C,B,]4 | [F,A,]8 |] %35
V:4
 x8 || x8 | x8 | x8 | x8 | x8 | x8 | x8 | G,4 x4 | x8 | x8 | x8 | x8 | x8 | x8 | x6 A,2 | C,4 x4 | %17
 x8 || x8 | F,3 C2 x3 | x8 | F,3 C2 x3 | x8 | x8 | x6 C,2 | G,,4 x4 | x8 | x8 | x8 | x8 | x8 | x8 | %32
 x8 | C4 x4 | x8 |] %35

